X: 41716
T: Valley Of The Moon
R: reel
M: 4/4
K: Amajor
c~E3 FEFA|cAeA f2ef|fafe cfec|B2AB cBAB|
c~E3 FEFA|cAeA f2ef|fafe cfec|1 BAcB BAAB:|2 BAcB BAce||
f3 f3ef|afec B2AB|c~E3 FEFA|AB2A cBBA|
[1f3 f3ef|afec B2AB|c~E3 FEFA|BAcB BAce:|
[2a3 a3fe|afec B2AB|c~E3 FEFA|BAcB BAAB||

